X:0385
T:Double Kisses.
M:C
L:1/8
Q:1/2=104
I: :: ||
Z:Jack Campin * www.campin.me.uk * 2009
K:C
 e    |c2GE c2 ce     |c2GE  dDDe       |c2GE cdec|dagf ecc:|
 e/f/ |gcge gc c(e/f/)|gcge (ad d)(e/f/)|gcge gcge|fagf ecc
(e/f/)|gcge gc c(e/f/)|gcge  ad df/g/   |afge fdec|Aagf ecc|]

